P3
80 80
255
0 0 0 0 0 0 0 0 0 0 0 0 0 0 0 1 1 1 4 4 4 7 7 7 
10 10 10 10 10 10 10 10 10 10 10 10 10 10 10 10 10 10 10 10 10 10 10 10 
10 10 10 10 10 10 10 10 10 10 10 10 10 10 10 10 10 10 10 10 10 10 10 10 
10 10 10 10 10 10 10 10 10 10 10 10 10 10 10 10 10 10 10 10 10 10 10 10 
10 10 10 10 10 10 10 10 10 10 10 10 10 10 10 10 10 10 10 10 10 10 10 10 
10 10 10 10 10 10 10 10 10 10 10 10 10 10 10 10 10 10 10 10 10 10 10 10 
10 10 10 10 10 10 10 10 10 10 10 10 10 10 10 10 10 10 10 10 10 10 10 10 
10 10 10 10 10 10 10 10 10 10 10 10 10 10 10 10 10 10 10 10 10 10 10 10 
10 10 10 10 10 10 10 10 10 10 10 10 10 10 10 10 10 10 10 10 10 10 10 10 
7 7 7 4 4 4 1 1 1 0 0 0 0 0 0 0 0 0 0 0 0 0 0 0 

0 0 0 0 0 0 0 0 0 0 0 0 2 2 2 9 9 9 11 11 11 10 10 10 
10 10 10 10 10 10 10 10 10 10 10 10 10 10 10 10 10 10 10 10 10 10 10 10 
10 10 10 10 10 10 10 10 10 10 10 10 10 10 10 10 10 10 10 10 10 10 10 10 
10 10 10 10 10 10 10 10 10 10 10 10 10 10 10 10 10 10 10 10 10 10 10 10 
10 10 10 10 10 10 10 10 10 10 10 10 10 10 10 10 10 10 10 10 10 10 10 10 
10 10 10 10 10 10 10 10 10 10 10 10 10 10 10 10 10 10 10 10 10 10 10 10 
10 10 10 10 10 10 10 10 10 10 10 10 10 10 10 10 10 10 10 10 10 10 10 10 
10 10 10 10 10 10 10 10 10 10 10 10 10 10 10 10 10 10 10 10 10 10 10 10 
10 10 10 10 10 10 10 10 10 10 10 10 10 10 10 10 10 10 10 10 10 10 10 10 
10 10 10 11 11 11 9 9 9 2 2 2 0 0 0 0 0 0 0 0 0 0 0 0 

0 0 0 0 0 0 0 0 0 4 4 4 10 10 10 10 10 10 10 10 10 10 10 10 
10 10 10 10 10 10 10 10 10 10 10 10 10 10 10 10 10 10 10 10 10 10 10 10 
10 10 10 10 10 10 10 10 10 10 10 10 10 10 10 10 10 10 10 10 10 10 10 10 
10 10 10 10 10 10 10 10 10 10 10 10 10 10 10 10 10 10 10 10 10 10 10 10 
10 10 10 10 10 10 10 10 10 10 10 10 10 10 10 10 10 10 10 10 10 10 10 10 
10 10 10 10 10 10 10 10 10 10 10 10 10 10 10 10 10 10 10 10 10 10 10 10 
10 10 10 10 10 10 10 10 10 10 10 10 10 10 10 10 10 10 10 10 10 10 10 10 
10 10 10 10 10 10 10 10 10 10 10 10 10 10 10 10 10 10 10 10 10 10 10 10 
10 10 10 10 10 10 10 10 10 10 10 10 10 10 10 10 10 10 10 10 10 10 10 10 
10 10 10 10 10 10 10 10 10 10 10 10 4 4 4 0 0 0 0 0 0 0 0 0 

0 0 0 0 0 0 4 4 4 10 10 10 10 10 10 10 10 10 10 10 10 10 10 10 
10 10 10 10 10 10 10 10 10 10 10 10 10 10 10 10 10 10 10 10 10 10 10 10 
10 10 10 10 10 10 10 10 10 10 10 10 10 10 10 10 10 10 10 10 10 10 10 10 
10 10 10 10 10 10 10 10 10 10 10 10 10 10 10 10 10 10 10 10 10 10 10 10 
10 10 10 10 10 10 10 10 10 10 10 10 10 10 10 10 10 10 10 10 10 10 10 10 
10 10 10 10 10 10 10 10 10 10 10 10 10 10 10 10 10 10 10 10 10 10 10 10 
10 10 10 10 10 10 10 10 10 10 10 10 10 10 10 10 10 10 10 10 10 10 10 10 
10 10 10 10 10 10 10 10 10 10 10 10 10 10 10 10 10 10 10 10 10 10 10 10 
10 10 10 10 10 10 10 10 10 10 10 10 10 10 10 10 10 10 10 10 10 10 10 10 
10 10 10 10 10 10 10 10 10 10 10 10 10 10 10 4 4 4 0 0 0 0 0 0 

0 0 0 2 2 2 10 10 10 10 10 10 10 10 10 10 10 10 10 10 10 10 10 10 
10 10 10 10 10 10 10 10 10 10 10 10 10 10 10 10 10 10 10 10 10 10 10 10 
10 10 10 10 10 10 10 10 10 10 10 10 10 10 10 10 10 10 10 10 10 10 10 10 
10 10 10 10 10 10 10 10 10 10 10 10 10 10 10 10 10 10 10 10 10 10 10 10 
10 10 10 10 10 10 10 10 10 10 10 10 10 10 10 10 10 10 10 10 10 10 10 10 
10 10 10 10 10 10 10 10 10 10 10 10 10 10 10 10 10 10 10 10 10 10 10 10 
10 10 10 10 10 10 10 10 10 10 10 10 10 10 10 10 10 10 10 10 10 10 10 10 
10 10 10 10 10 10 10 10 10 10 10 10 10 10 10 10 10 10 10 10 10 10 10 10 
10 10 10 10 10 10 10 10 10 10 10 10 10 10 10 10 10 10 10 10 10 10 10 10 
10 10 10 10 10 10 10 10 10 10 10 10 10 10 10 10 10 10 2 2 2 0 0 0 

1 1 1 9 9 9 10 10 10 10 10 10 10 10 10 10 10 10 10 10 10 10 10 10 
10 10 10 10 10 10 10 10 10 10 10 10 10 10 10 10 10 10 10 10 10 10 10 10 
10 10 10 10 10 10 10 10 10 10 10 10 10 10 10 10 10 10 10 10 10 10 10 10 
10 10 10 10 10 10 10 10 10 10 10 10 10 10 10 10 10 10 10 10 10 10 10 10 
10 10 10 10 10 10 10 10 10 10 10 10 10 10 10 10 10 10 10 10 10 10 10 10 
10 10 10 10 10 10 10 10 10 10 10 10 10 10 10 10 10 10 10 10 10 10 10 10 
10 10 10 10 10 10 10 10 10 10 10 10 10 10 10 10 10 10 10 10 10 10 10 10 
10 10 10 10 10 10 10 10 10 10 10 10 10 10 10 10 10 10 10 10 10 10 10 10 
10 10 10 10 10 10 10 10 10 10 10 10 10 10 10 10 10 10 10 10 10 10 10 10 
10 10 10 10 10 10 10 10 10 10 10 10 10 10 10 10 10 10 9 9 9 1 1 1 

4 4 4 11 11 11 10 10 10 10 10 10 10 10 10 10 10 10 10 10 10 10 10 10 
10 10 10 10 10 10 10 10 10 10 10 10 10 10 10 10 10 10 10 10 10 10 10 10 
10 10 10 10 10 10 10 10 10 10 10 10 10 10 10 10 10 10 10 10 10 10 10 10 
10 10 10 10 10 10 10 10 10 10 10 10 10 10 10 10 10 10 10 10 10 10 10 10 
10 10 10 10 10 10 10 10 10 10 10 10 10 10 10 10 10 10 10 10 10 10 10 10 
10 10 10 10 10 10 10 10 10 10 10 10 10 10 10 10 10 10 10 10 10 10 10 10 
10 10 10 10 10 10 10 10 10 10 10 10 10 10 10 10 10 10 10 10 10 10 10 10 
10 10 10 10 10 10 10 10 10 10 10 10 10 10 10 10 10 10 10 10 10 10 10 10 
10 10 10 10 10 10 10 10 10 10 10 10 10 10 10 10 10 10 10 10 10 10 10 10 
10 10 10 10 10 10 10 10 10 10 10 10 10 10 10 10 10 10 11 11 11 4 4 4 

7 7 7 10 10 10 10 10 10 10 10 10 10 10 10 10 10 10 10 10 10 10 10 10 
10 10 10 10 10 10 10 10 10 10 10 10 10 10 10 10 10 10 10 10 10 10 10 10 
10 10 10 10 10 10 10 10 10 10 10 10 10 10 10 10 10 10 10 10 10 10 10 10 
10 10 10 10 10 10 10 10 10 10 10 10 10 10 10 10 10 10 10 10 10 10 10 10 
10 10 10 10 10 10 10 10 10 10 10 10 10 10 10 10 10 10 10 10 10 10 10 10 
10 10 10 10 10 10 10 10 10 10 10 10 10 10 10 10 10 10 10 10 10 10 10 10 
10 10 10 10 10 10 10 10 10 10 10 10 10 10 10 10 10 10 10 10 10 10 10 10 
10 10 10 10 10 10 10 10 10 10 10 10 10 10 10 10 10 10 10 10 10 10 10 10 
10 10 10 10 10 10 10 10 10 10 10 10 10 10 10 10 10 10 10 10 10 10 10 10 
10 10 10 10 10 10 10 10 10 10 10 10 10 10 10 10 10 10 10 10 10 7 7 7 

10 10 10 10 10 10 10 10 10 10 10 10 10 10 10 10 10 10 10 10 10 10 10 10 
10 10 10 10 10 10 10 10 10 10 10 10 10 10 10 10 10 10 10 10 10 10 10 10 
10 10 10 10 10 10 10 10 10 10 10 10 10 10 10 10 10 10 10 10 10 10 10 10 
10 10 10 10 10 10 10 10 10 10 10 10 10 10 10 10 10 10 10 10 10 10 10 10 
10 10 10 10 10 10 10 10 10 10 10 10 10 10 10 10 10 10 10 10 10 10 10 10 
10 10 10 10 10 10 10 10 10 10 10 10 10 10 10 10 10 10 10 10 10 10 10 10 
10 10 10 10 10 10 10 10 10 10 10 10 10 10 10 10 10 10 10 10 10 10 10 10 
10 10 10 10 10 10 10 10 10 10 10 10 10 10 10 10 10 10 10 10 10 10 10 10 
10 10 10 10 10 10 10 10 10 10 10 10 10 10 10 10 10 10 10 10 10 10 10 10 
10 10 10 10 10 10 10 10 10 10 10 10 10 10 10 10 10 10 10 10 10 10 10 10 

10 10 10 10 10 10 10 10 10 10 10 10 10 10 10 10 10 10 10 10 10 10 10 10 
10 10 10 10 10 10 10 10 10 10 10 10 10 10 10 10 10 10 10 10 10 10 10 10 
10 10 10 10 10 10 10 10 10 10 10 10 10 10 10 10 10 10 10 10 10 10 10 10 
10 10 10 10 10 10 10 10 10 10 10 10 10 10 10 10 10 10 10 10 10 10 10 10 
10 10 10 10 10 10 10 10 10 10 10 10 10 10 10 10 10 10 10 10 10 10 8 8 
10 8 8 10 10 10 10 10 10 10 10 10 10 10 10 10 10 10 10 10 10 10 10 10 
10 10 10 10 10 10 10 10 10 10 10 10 10 10 10 10 10 10 10 10 10 10 10 10 
10 10 10 10 10 10 10 10 10 10 10 10 10 10 10 10 10 10 10 10 10 10 10 10 
10 10 10 10 10 10 10 10 10 10 10 10 10 10 10 10 10 10 10 10 10 10 10 10 
10 10 10 10 10 10 10 10 10 10 10 10 10 10 10 10 10 10 10 10 10 10 10 10 

10 10 10 10 10 10 10 10 10 10 10 10 10 10 10 10 10 10 10 10 10 10 10 10 
10 10 10 10 10 10 10 10 10 10 10 10 10 10 10 10 10 10 10 10 10 10 10 10 
10 10 10 10 10 10 10 10 10 10 10 10 10 10 10 10 10 10 10 10 10 10 10 10 
10 10 10 10 10 10 10 10 10 10 10 10 10 10 10 10 10 10 10 10 10 10 10 10 
10 10 10 10 10 10 10 10 10 10 10 10 10 10 10 10 10 10 10 7 8 10 22 21 
10 22 21 10 7 8 10 10 10 10 10 10 10 10 10 10 10 10 10 10 10 10 10 10 
10 10 10 10 10 10 10 10 10 10 10 10 10 10 10 10 10 10 10 10 10 10 10 10 
10 10 10 10 10 10 10 10 10 10 10 10 10 10 10 10 10 10 10 10 10 10 10 10 
10 10 10 10 10 10 10 10 10 10 10 10 10 10 10 10 10 10 10 10 10 10 10 10 
10 10 10 10 10 10 10 10 10 10 10 10 10 10 10 10 10 10 10 10 10 10 10 10 

10 10 10 10 10 10 10 10 10 10 10 10 10 10 10 10 10 10 10 10 10 10 10 10 
10 10 10 10 10 10 10 10 10 10 10 10 10 10 10 10 10 10 10 10 10 10 10 10 
10 10 10 10 10 10 10 10 10 10 10 10 10 10 10 10 10 10 10 10 10 10 10 10 
10 10 10 10 10 10 10 10 10 10 10 10 10 10 10 10 10 10 10 10 10 10 10 10 
10 10 10 10 10 10 10 10 10 10 10 10 10 9 9 11 7 8 8 3 3 6 139 128 
5 138 128 8 3 3 11 7 8 10 9 9 10 10 10 10 10 10 10 10 10 10 10 10 
10 10 10 10 10 10 10 10 10 10 10 10 10 10 10 10 10 10 10 10 10 10 10 10 
10 10 10 10 10 10 10 10 10 10 10 10 10 10 10 10 10 10 10 10 10 10 10 10 
10 10 10 10 10 10 10 10 10 10 10 10 10 10 10 10 10 10 10 10 10 10 10 10 
10 10 10 10 10 10 10 10 10 10 10 10 10 10 10 10 10 10 10 10 10 10 10 10 

10 10 10 10 10 10 10 10 10 10 10 10 10 10 10 10 10 10 10 10 10 10 10 10 
10 10 10 10 10 10 10 10 10 10 10 10 10 10 10 10 10 10 10 10 10 10 10 10 
10 10 10 10 10 10 10 10 10 10 10 10 10 10 10 10 10 10 10 10 10 10 10 10 
10 10 10 10 10 10 10 10 10 10 10 10 10 10 10 10 10 10 10 10 10 10 10 10 
10 8 8 10 4 5 10 1 2 10 1 1 10 6 6 10 9 9 5 78 72 2 218 201 
2 218 201 5 77 72 10 9 9 10 6 6 10 1 1 10 1 2 10 4 5 10 8 8 
10 10 10 10 10 10 10 10 10 10 10 10 10 10 10 10 10 10 10 10 10 10 10 10 
10 10 10 10 10 10 10 10 10 10 10 10 10 10 10 10 10 10 10 10 10 10 10 10 
10 10 10 10 10 10 10 10 10 10 10 10 10 10 10 10 10 10 10 10 10 10 10 10 
10 10 10 10 10 10 10 10 10 10 10 10 10 10 10 10 10 10 10 10 10 10 10 10 

10 10 10 10 10 10 10 10 10 10 10 10 10 10 10 10 10 10 10 10 10 10 10 10 
10 10 10 10 10 10 10 10 10 10 10 10 10 10 10 10 10 10 10 10 10 10 10 10 
10 10 10 10 10 10 10 10 10 10 10 10 10 10 10 10 10 10 10 10 10 10 10 10 
10 10 10 10 10 10 10 10 10 10 10 10 10 10 10 10 9 9 10 3 4 10 1 2 
9 15 14 8 46 43 6 92 85 5 128 118 3 158 146 2 179 165 1 208 192 0 217 200 
0 217 200 1 208 192 2 179 165 3 158 146 5 128 118 6 92 85 8 46 43 9 15 14 
10 1 2 10 3 4 10 9 9 10 10 10 10 10 10 10 10 10 10 10 10 10 10 10 
10 10 10 10 10 10 10 10 10 10 10 10 10 10 10 10 10 10 10 10 10 10 10 10 
10 10 10 10 10 10 10 10 10 10 10 10 10 10 10 10 10 10 10 10 10 10 10 10 
10 10 10 10 10 10 10 10 10 10 10 10 10 10 10 10 10 10 10 10 10 10 10 10 

10 10 10 10 10 10 10 10 10 10 10 10 10 10 10 10 10 10 10 10 10 10 10 10 
10 10 10 10 10 10 10 10 10 10 10 10 10 10 10 10 10 10 10 10 10 10 10 10 
10 10 10 10 10 10 10 10 10 10 10 10 10 10 10 10 10 10 10 10 10 10 10 10 
10 10 10 10 10 10 10 10 10 10 8 8 10 1 2 10 10 10 7 55 51 5 124 114 
2 181 167 0 211 195 0 224 206 0 224 207 0 223 205 0 221 203 0 217 200 0 215 198 
0 215 198 0 217 200 0 221 203 0 223 205 0 224 207 0 224 206 1 211 195 2 181 167 
5 124 114 7 55 51 10 10 10 10 1 2 10 8 8 10 10 10 10 10 10 10 10 10 
10 10 10 10 10 10 10 10 10 10 10 10 10 10 10 10 10 10 10 10 10 10 10 10 
10 10 10 10 10 10 10 10 10 10 10 10 10 10 10 10 10 10 10 10 10 10 10 10 
10 10 10 10 10 10 10 10 10 10 10 10 10 10 10 10 10 10 10 10 10 10 10 10 

10 10 10 10 10 10 10 10 10 10 10 10 10 10 10 10 10 10 10 10 10 10 10 10 
10 10 10 10 10 10 10 10 10 10 10 10 10 10 10 10 10 10 10 10 10 10 10 10 
10 10 10 10 10 10 10 10 10 10 10 10 10 10 10 10 10 10 10 10 10 10 10 10 
10 10 10 10 9 9 10 1 2 10 14 14 5 82 76 3 170 157 0 215 198 0 225 207 
0 220 203 0 217 200 0 215 198 0 215 198 0 215 198 0 215 198 0 215 198 0 215 198 
0 215 198 0 215 198 0 215 198 0 215 198 0 215 198 0 215 198 0 217 200 0 220 203 
0 225 207 0 215 198 3 170 156 5 82 76 10 14 14 10 1 2 10 9 9 10 10 10 
10 10 10 10 10 10 10 10 10 10 10 10 10 10 10 10 10 10 10 10 10 10 10 10 
10 10 10 10 10 10 10 10 10 10 10 10 10 10 10 10 10 10 10 10 10 10 10 10 
10 10 10 10 10 10 10 10 10 10 10 10 10 10 10 10 10 10 10 10 10 10 10 10 

10 10 10 10 10 10 10 10 10 10 10 10 10 10 10 10 10 10 10 10 10 10 10 10 
10 10 10 10 10 10 10 10 10 10 10 10 10 10 10 10 10 10 10 10 10 10 10 10 
10 10 10 10 10 10 10 10 10 10 10 10 10 10 10 10 10 10 10 10 10 10 10 10 
10 4 5 10 6 6 6 76 71 3 177 164 0 222 205 0 222 205 0 216 199 0 215 198 
0 215 198 0 215 198 0 215 198 0 215 198 0 215 198 0 215 198 0 215 198 0 215 198 
0 215 198 0 215 198 0 215 198 0 215 198 0 215 198 0 215 198 0 215 198 0 215 198 
0 215 198 0 216 199 0 222 205 0 222 205 3 177 164 6 76 71 10 6 6 10 4 5 
10 10 10 10 10 10 10 10 10 10 10 10 10 10 10 10 10 10 10 10 10 10 10 10 
10 10 10 10 10 10 10 10 10 10 10 10 10 10 10 10 10 10 10 10 10 10 10 10 
10 10 10 10 10 10 10 10 10 10 10 10 10 10 10 10 10 10 10 10 10 10 10 10 

10 10 10 10 10 10 10 10 10 10 10 10 10 10 10 10 10 10 10 10 10 10 10 10 
10 10 10 10 10 10 10 10 10 10 10 10 10 10 10 10 10 10 10 10 10 10 10 10 
10 10 10 10 10 10 10 10 10 10 10 10 10 10 10 10 10 10 10 9 9 10 0 1 
7 39 36 4 151 139 0 220 203 0 222 204 0 215 198 0 215 198 0 215 198 0 215 198 
0 215 198 0 215 198 0 215 198 0 215 198 0 215 198 0 215 198 0 215 198 0 215 198 
0 215 198 0 215 198 0 215 198 0 215 198 0 215 198 0 215 198 0 215 198 0 215 198 
0 215 198 0 215 198 0 215 198 0 215 198 0 222 204 0 220 203 4 151 139 7 39 36 
10 0 1 10 9 9 10 10 10 10 10 10 10 10 10 10 10 10 10 10 10 10 10 10 
10 10 10 10 10 10 10 10 10 10 10 10 10 10 10 10 10 10 10 10 10 10 10 10 
10 10 10 10 10 10 10 10 10 10 10 10 10 10 10 10 10 10 10 10 10 10 10 10 

10 10 10 10 10 10 10 10 10 10 10 10 10 10 10 10 10 10 10 10 10 10 10 10 
10 10 10 10 10 10 10 10 10 10 10 10 10 10 10 10 10 10 10 10 10 10 10 10 
10 10 10 10 10 10 10 10 10 10 10 10 10 10 10 10 8 8 9 3 4 6 79 73 
2 199 184 0 225 207 0 216 199 0 215 198 0 215 198 0 215 198 0 215 198 0 215 198 
0 215 199 0 217 200 0 215 198 0 215 198 0 215 198 0 215 198 0 215 198 0 215 198 
0 215 198 0 215 198 0 215 198 0 215 198 0 215 198 0 215 198 0 217 200 0 215 199 
0 215 198 0 215 198 0 215 198 0 215 198 0 215 198 0 216 199 0 225 207 2 199 184 
6 79 73 9 3 4 10 8 8 10 10 10 10 10 10 10 10 10 10 10 10 10 10 10 
10 10 10 10 10 10 10 10 10 10 10 10 10 10 10 10 10 10 10 10 10 10 10 10 
10 10 10 10 10 10 10 10 10 10 10 10 10 10 10 10 10 10 10 10 10 10 10 10 

10 10 10 10 10 10 10 10 10 10 10 10 10 10 10 10 10 10 10 10 10 10 10 10 
10 10 10 10 10 10 10 10 10 10 10 10 10 10 10 10 10 10 10 10 10 10 10 10 
10 10 10 10 10 10 10 10 10 10 10 10 10 7 7 9 7 7 4 117 108 1 219 202 
0 220 202 0 215 198 0 215 198 0 215 198 0 215 198 0 215 198 0 216 199 0 223 205 
0 220 203 0 201 185 0 214 197 0 215 198 0 215 198 0 215 198 0 215 198 0 215 198 
0 215 198 0 215 198 0 215 198 0 215 198 0 215 198 0 214 197 0 201 185 0 220 203 
0 223 205 0 216 199 0 215 198 0 215 198 0 215 198 0 215 198 0 215 198 0 220 202 
1 219 202 4 117 108 9 6 7 10 7 7 10 10 10 10 10 10 10 10 10 10 10 10 
10 10 10 10 10 10 10 10 10 10 10 10 10 10 10 10 10 10 10 10 10 10 10 10 
10 10 10 10 10 10 10 10 10 10 10 10 10 10 10 10 10 10 10 10 10 10 10 10 

10 10 10 10 10 10 10 10 10 10 10 10 10 10 10 10 10 10 10 10 10 10 10 10 
10 10 10 10 10 10 10 10 10 10 10 10 10 10 10 10 10 10 10 10 10 10 10 10 
10 10 10 10 10 10 10 10 10 11 7 7 8 12 11 5 135 124 0 224 206 0 217 200 
0 215 198 0 215 198 0 215 198 0 215 198 0 215 198 0 223 205 1 217 200 3 159 147 
5 75 69 3 146 135 1 220 203 0 215 198 0 215 198 0 215 198 0 215 198 0 219 201 
0 219 201 0 215 198 0 215 198 0 215 198 0 215 198 1 220 203 3 146 135 5 75 70 
3 159 147 1 217 200 0 223 205 0 215 198 0 215 198 0 215 198 0 215 198 0 215 198 
0 217 200 0 224 206 5 134 124 8 12 11 11 7 7 10 10 10 10 10 10 10 10 10 
10 10 10 10 10 10 10 10 10 10 10 10 10 10 10 10 10 10 10 10 10 10 10 10 
10 10 10 10 10 10 10 10 10 10 10 10 10 10 10 10 10 10 10 10 10 10 10 10 

10 10 10 10 10 10 10 10 10 10 10 10 10 10 10 10 10 10 10 10 10 10 10 10 
10 10 10 10 10 10 10 10 10 10 10 10 10 10 10 10 10 10 10 10 10 10 10 10 
10 10 10 10 10 10 10 8 8 9 7 7 4 135 125 1 225 208 0 216 199 0 215 198 
0 215 198 0 215 198 0 215 198 0 218 201 0 222 205 3 164 152 8 62 57 9 0 0 
5 62 58 3 214 197 0 217 200 0 215 198 0 215 198 0 215 198 0 219 202 1 189 174 
1 189 174 0 219 202 0 215 198 0 215 198 0 215 198 0 217 200 3 214 197 5 62 58 
9 0 0 8 62 58 3 164 152 0 222 205 0 218 201 0 215 198 0 215 198 0 215 198 
0 215 198 0 216 199 1 225 208 4 135 124 9 7 7 10 8 8 10 10 10 10 10 10 
10 10 10 10 10 10 10 10 10 10 10 10 10 10 10 10 10 10 10 10 10 10 10 10 
10 10 10 10 10 10 10 10 10 10 10 10 10 10 10 10 10 10 10 10 10 10 10 10 

10 10 10 10 10 10 10 10 10 10 10 10 10 10 10 10 10 10 10 10 10 10 10 10 
10 10 10 10 10 10 10 10 10 10 10 10 10 10 10 10 10 10 10 10 10 10 10 10 
10 10 10 11 9 9 8 4 4 6 117 108 0 224 206 0 216 199 0 215 198 0 215 198 
0 215 198 0 215 198 0 222 205 1 205 189 6 95 88 9 10 10 10 0 0 8 23 22 
3 187 173 0 221 203 0 215 198 0 215 198 0 215 198 0 217 200 3 217 200 5 65 60 
5 65 60 3 217 200 0 217 200 0 215 198 0 215 198 0 215 198 0 221 203 3 187 172 
8 23 22 10 0 0 9 10 10 6 95 88 1 205 189 0 222 205 0 215 198 0 215 198 
0 215 198 0 215 198 0 216 199 0 224 206 6 116 108 8 4 4 11 9 9 10 10 10 
10 10 10 10 10 10 10 10 10 10 10 10 10 10 10 10 10 10 10 10 10 10 10 10 
10 10 10 10 10 10 10 10 10 10 10 10 10 10 10 10 10 10 10 10 10 10 10 10 

10 10 10 10 10 10 10 10 10 10 10 10 10 10 10 10 10 10 10 10 10 10 10 10 
10 10 10 10 10 10 10 10 10 10 10 10 10 10 10 10 10 10 10 10 10 10 10 10 
10 10 10 10 1 1 5 80 74 2 219 202 0 217 200 0 215 198 0 215 198 0 215 198 
0 215 198 0 224 206 3 180 166 6 49 46 10 0 0 11 7 8 8 4 4 5 133 123 
0 225 207 0 215 198 0 215 198 0 215 198 0 215 198 0 225 207 5 132 122 9 3 3 
9 3 3 5 133 122 0 225 207 0 215 198 0 215 198 0 215 198 0 215 198 0 225 207 
5 132 122 8 4 4 11 7 8 10 0 0 6 49 46 3 180 166 0 224 206 0 215 198 
0 215 198 0 215 198 0 215 198 0 217 200 2 219 202 5 80 74 10 1 1 10 10 10 
10 10 10 10 10 10 10 10 10 10 10 10 10 10 10 10 10 10 10 10 10 10 10 10 
10 10 10 10 10 10 10 10 10 10 10 10 10 10 10 10 10 10 10 10 10 10 10 10 

10 10 10 10 10 10 10 10 10 10 10 10 10 10 10 10 10 10 10 10 10 10 10 10 
10 10 10 10 10 10 10 10 10 10 10 10 10 10 10 10 10 10 10 10 10 10 10 10 
10 5 5 7 39 36 2 199 183 0 220 202 0 215 198 0 215 198 0 215 198 0 215 198 
0 224 206 3 167 154 8 27 26 10 2 2 10 10 10 10 1 2 5 72 67 3 217 200 
0 217 200 0 215 198 0 215 198 0 215 198 0 221 203 3 187 172 8 24 23 10 6 7 
10 6 6 8 24 23 3 187 172 0 221 203 0 215 198 0 215 198 0 215 198 0 217 200 
3 217 200 5 72 66 10 1 2 10 10 10 10 2 2 8 27 26 3 167 154 0 224 206 
0 215 198 0 215 198 0 215 198 0 215 198 0 220 202 2 199 183 7 39 36 10 5 5 
10 10 10 10 10 10 10 10 10 10 10 10 10 10 10 10 10 10 10 10 10 10 10 10 
10 10 10 10 10 10 10 10 10 10 10 10 10 10 10 10 10 10 10 10 10 10 10 10 

10 10 10 10 10 10 10 10 10 10 10 10 10 10 10 10 10 10 10 10 10 10 10 10 
10 10 10 10 10 10 10 10 10 10 10 10 10 10 10 10 10 10 10 10 10 11 9 9 
8 7 7 5 151 139 0 225 207 0 215 198 0 215 198 0 215 198 0 215 198 0 224 206 
4 166 153 7 21 20 11 4 4 10 10 10 10 6 6 8 24 23 3 187 172 0 221 203 
0 215 198 0 215 198 0 215 198 0 217 200 3 217 200 5 72 66 10 1 2 10 10 10 
10 10 10 10 1 2 5 72 67 3 217 200 0 217 200 0 215 198 0 215 198 0 215 198 
0 221 203 3 187 172 8 24 23 10 6 6 10 10 10 11 4 4 7 21 20 4 166 153 
0 224 206 0 215 198 0 215 198 0 215 198 0 215 198 0 225 207 5 150 139 8 7 7 
11 9 9 10 10 10 10 10 10 10 10 10 10 10 10 10 10 10 10 10 10 10 10 10 
10 10 10 10 10 10 10 10 10 10 10 10 10 10 10 10 10 10 10 10 10 10 10 10 

10 10 10 10 10 10 10 10 10 10 10 10 10 10 10 10 10 10 10 10 10 10 10 10 
10 10 10 10 10 10 10 10 10 10 10 10 10 10 10 10 10 10 10 10 10 10 2 2 
5 77 71 2 219 202 0 216 199 0 215 198 0 215 198 0 215 198 0 222 205 3 180 166 
7 27 26 10 4 4 10 10 10 11 9 9 8 3 4 5 133 123 0 225 207 0 215 198 
0 215 198 0 215 198 0 215 198 0 225 207 5 132 122 8 3 4 11 9 9 10 10 10 
10 10 10 11 9 9 8 3 4 5 133 122 0 225 207 0 215 198 0 215 198 0 215 198 
0 215 198 0 225 207 5 132 122 8 3 4 11 9 9 10 10 10 10 4 4 7 27 26 
3 180 166 0 222 205 0 215 198 0 215 198 0 215 198 0 216 199 2 219 202 5 76 71 
10 2 2 10 10 10 10 10 10 10 10 10 10 10 10 10 10 10 10 10 10 10 10 10 
10 10 10 10 10 10 10 10 10 10 10 10 10 10 10 10 10 10 10 10 10 10 10 10 

10 10 10 10 10 10 10 10 10 10 10 10 10 10 10 10 10 10 10 10 10 10 10 10 
10 10 10 10 10 10 10 10 10 10 10 10 10 10 10 10 10 10 10 8 8 9 14 14 
2 178 164 0 221 204 0 215 198 0 215 198 0 215 198 0 219 201 4 204 188 5 50 46 
11 1 2 10 10 10 10 10 10 10 1 2 5 72 67 3 217 200 0 217 200 0 215 198 
0 215 198 0 215 198 0 221 203 3 187 172 8 24 23 10 6 6 10 10 10 10 10 10 
10 10 10 10 10 10 10 6 6 8 24 23 3 187 172 0 221 203 0 215 198 0 215 198 
0 215 198 0 217 200 3 217 200 5 72 66 10 1 2 10 10 10 10 10 10 10 1 2 
5 50 46 4 204 188 0 219 201 0 215 198 0 215 198 0 215 198 0 221 204 2 177 164 
9 14 14 10 8 8 10 10 10 10 10 10 10 10 10 10 10 10 10 10 10 10 10 10 
10 10 10 10 10 10 10 10 10 10 10 10 10 10 10 10 10 10 10 10 10 10 10 10 

10 10 10 10 10 10 10 10 10 10 10 10 10 10 10 10 10 10 10 10 10 10 10 10 
10 10 10 10 10 10 10 10 10 10 10 10 10 10 10 10 10 10 10 1 2 5 82 76 
2 221 204 0 215 199 0 215 198 0 215 198 0 215 198 1 222 205 6 95 88 9 0 1 
10 10 10 10 10 10 10 6 6 8 24 23 3 187 172 0 221 203 0 215 198 0 215 198 
0 215 198 0 217 200 3 217 200 5 72 66 10 1 2 10 10 10 10 10 10 10 10 10 
10 10 10 10 10 10 10 10 10 10 1 2 5 72 67 3 217 200 0 217 200 0 215 198 
0 215 198 0 215 198 0 221 203 3 187 172 8 24 23 10 6 6 10 10 10 10 10 10 
9 0 1 5 95 88 1 222 205 0 215 198 0 215 198 0 215 198 0 215 199 2 221 204 
5 82 76 10 1 2 10 10 10 10 10 10 10 10 10 10 10 10 10 10 10 10 10 10 
10 10 10 10 10 10 10 10 10 10 10 10 10 10 10 10 10 10 10 10 10 10 10 10 

10 10 10 10 10 10 10 10 10 10 10 10 10 10 10 10 10 10 10 10 10 10 10 10 
10 10 10 10 10 10 10 10 10 10 10 10 10 10 10 11 8 9 6 12 11 6 168 156 
0 222 205 0 215 198 0 215 198 0 215 198 0 222 205 4 164 151 8 10 10 10 8 8 
10 10 10 11 9 9 8 3 4 5 133 123 0 225 207 0 215 198 0 215 198 0 215 198 
0 215 198 0 225 207 5 132 122 8 3 4 11 9 9 10 10 10 10 10 10 10 10 10 
10 10 10 10 10 10 10 10 10 11 9 9 8 3 4 5 133 122 0 225 207 0 215 198 
0 215 198 0 215 198 0 215 198 0 225 207 5 132 122 8 3 4 11 9 9 10 10 10 
10 8 8 8 10 10 4 164 151 0 222 205 0 215 198 0 215 198 0 215 198 0 222 205 
6 168 155 6 12 11 11 8 9 10 10 10 10 10 10 10 10 10 10 10 10 10 10 10 
10 10 10 10 10 10 10 10 10 10 10 10 10 10 10 10 10 10 10 10 10 10 10 10 

10 10 10 10 10 10 10 10 10 10 10 10 10 10 10 10 10 10 10 10 10 10 10 10 
10 10 10 10 10 10 10 10 10 10 10 10 10 10 10 11 3 4 4 56 52 4 214 197 
0 217 199 0 215 198 0 215 198 0 216 199 3 216 199 5 63 58 11 2 2 10 10 10 
10 10 10 10 1 2 5 72 67 3 217 200 0 217 200 0 215 198 0 215 198 0 215 198 
0 221 203 3 187 172 8 24 23 10 6 6 10 10 10 10 10 10 10 10 10 10 10 10 
10 10 10 10 10 10 10 10 10 10 10 10 10 6 6 8 24 23 3 187 172 0 221 203 
0 215 198 0 215 198 0 215 198 0 217 200 3 217 200 5 72 66 10 1 2 10 10 10 
10 10 10 11 2 2 5 63 58 3 216 199 0 216 199 0 215 198 0 215 198 0 217 199 
4 214 197 4 56 52 11 3 4 10 10 10 10 10 10 10 10 10 10 10 10 10 10 10 
10 10 10 10 10 10 10 10 10 10 10 10 10 10 10 10 10 10 10 10 10 10 10 10 

10 10 10 10 10 10 10 10 10 10 10 10 10 10 10 10 10 10 10 10 10 10 10 10 
10 10 10 10 10 10 10 10 10 10 10 10 10 10 10 7 3 3 7 123 114 0 225 207 
0 215 198 0 215 198 0 215 198 0 223 205 5 159 146 7 8 8 11 9 9 10 10 10 
10 6 6 8 24 23 3 187 172 0 221 203 0 215 198 0 215 198 0 215 198 0 217 200 
3 217 200 5 72 66 10 1 2 10 10 10 10 10 10 10 10 10 10 10 10 10 10 10 
10 10 10 10 10 10 10 10 10 10 10 10 10 10 10 10 1 2 5 72 67 3 217 200 
0 217 200 0 215 198 0 215 198 0 215 198 0 221 203 3 187 172 8 24 23 10 6 6 
10 10 10 11 9 9 7 8 8 5 159 147 0 223 205 0 215 198 0 215 198 0 215 198 
0 225 207 7 122 113 7 3 3 10 10 10 10 10 10 10 10 10 10 10 10 10 10 10 
10 10 10 10 10 10 10 10 10 10 10 10 10 10 10 10 10 10 10 10 10 10 10 10 

10 10 10 10 10 10 10 10 10 10 10 10 10 10 10 10 10 10 10 10 10 10 10 10 
10 10 10 10 10 10 10 10 10 10 10 10 10 8 8 10 15 14 1 182 168 1 220 203 
0 215 198 0 215 198 0 215 198 3 221 204 4 83 76 10 1 2 10 10 10 11 9 9 
8 3 4 5 133 123 0 225 207 0 215 198 0 215 198 0 215 198 0 215 198 0 225 207 
5 132 122 8 3 4 11 9 9 10 10 10 10 10 10 10 10 10 10 10 10 10 10 10 
10 10 10 10 10 10 10 10 10 10 10 10 10 10 10 11 9 9 8 3 4 5 133 122 
0 225 207 0 215 198 0 215 198 0 215 198 0 215 198 0 225 207 5 132 122 8 3 4 
11 9 9 10 10 10 10 1 2 4 83 76 3 221 204 0 215 198 0 215 198 0 215 198 
1 220 203 1 182 168 10 15 14 10 8 8 10 10 10 10 10 10 10 10 10 10 10 10 
10 10 10 10 10 10 10 10 10 10 10 10 10 10 10 10 10 10 10 10 10 10 10 10 

10 10 10 10 10 10 10 10 10 10 10 10 10 10 10 10 10 10 10 10 10 10 10 10 
10 10 10 10 10 10 10 10 10 10 10 10 9 5 5 9 46 43 1 211 195 0 217 200 
0 215 198 0 215 198 1 218 201 0 197 181 11 26 25 9 7 7 10 10 10 10 1 2 
5 72 67 3 217 200 0 217 200 0 215 198 0 215 198 0 215 198 0 221 203 3 187 172 
8 24 23 10 6 6 10 10 10 10 10 10 10 10 10 10 10 10 10 10 10 10 10 10 
10 10 10 10 10 10 10 10 10 10 10 10 10 10 10 10 10 10 10 6 6 8 24 23 
3 187 172 0 221 203 0 215 198 0 215 198 0 215 198 0 217 200 3 217 200 5 72 66 
10 1 2 10 10 10 9 7 7 11 26 25 0 197 181 1 218 201 0 215 198 0 215 198 
0 217 200 1 211 195 9 46 43 9 5 5 10 10 10 10 10 10 10 10 10 10 10 10 
10 10 10 10 10 10 10 10 10 10 10 10 10 10 10 10 10 10 10 10 10 10 10 10 

10 10 10 10 10 10 10 10 10 10 10 10 10 10 10 10 10 10 10 10 10 10 10 10 
10 10 10 10 10 10 10 10 10 10 10 10 9 1 2 3 93 86 4 222 205 0 215 198 
0 215 198 0 215 198 1 222 205 5 152 140 6 6 6 10 10 10 10 6 6 8 24 23 
3 187 172 0 221 203 0 215 198 0 215 198 0 215 198 0 217 200 3 217 200 5 72 66 
10 1 2 10 10 10 10 10 10 10 10 10 10 10 10 10 10 10 10 10 10 10 10 10 
10 10 10 10 10 10 10 10 10 10 10 10 10 10 10 10 10 10 10 10 10 10 1 2 
5 72 67 3 217 200 0 217 200 0 215 198 0 215 198 0 215 198 0 221 203 3 187 172 
8 24 23 10 6 6 10 10 10 6 6 6 5 152 141 1 222 205 0 215 198 0 215 198 
0 215 198 4 222 205 3 93 86 9 1 2 10 10 10 10 10 10 10 10 10 10 10 10 
10 10 10 10 10 10 10 10 10 10 10 10 10 10 10 10 10 10 10 10 10 10 10 10 

10 10 10 10 10 10 10 10 10 10 10 10 10 10 10 10 10 10 10 10 10 10 10 10 
10 10 10 10 10 10 10 10 10 10 10 10 11 0 1 2 129 119 1 224 206 0 215 198 
0 215 198 0 215 198 0 225 207 8 104 96 8 1 2 11 9 9 8 3 4 5 133 123 
0 225 207 0 215 198 0 215 198 0 215 198 0 215 198 0 225 207 5 132 122 8 3 4 
11 9 9 10 10 10 10 10 10 10 10 10 10 10 10 10 10 10 10 10 10 10 10 10 
10 10 10 10 10 10 10 10 10 10 10 10 10 10 10 10 10 10 10 10 10 11 9 9 
8 3 4 5 133 122 0 225 207 0 215 198 0 215 198 0 215 198 0 215 198 0 225 207 
5 132 122 8 3 4 11 9 9 8 1 2 8 104 96 0 225 207 0 215 198 0 215 198 
0 215 198 1 224 206 2 129 119 11 0 1 10 10 10 10 10 10 10 10 10 10 10 10 
10 10 10 10 10 10 10 10 10 10 10 10 10 10 10 10 10 10 10 10 10 10 10 10 

10 10 10 10 10 10 10 10 10 10 10 10 10 10 10 10 10 10 10 10 10 10 10 10 
10 10 10 10 10 10 10 10 10 10 9 9 10 6 6 4 157 145 0 223 206 0 215 198 
0 215 198 0 215 199 0 221 204 7 72 66 12 1 2 10 1 2 5 72 67 3 217 200 
0 217 200 0 215 198 0 215 198 0 215 198 0 221 203 3 187 172 8 24 23 10 6 6 
10 10 10 10 10 10 10 10 10 10 10 10 10 10 10 10 10 10 10 10 10 10 10 10 
10 10 10 10 10 10 10 10 10 10 10 10 10 10 10 10 10 10 10 10 10 10 10 10 
10 6 6 8 24 23 3 187 172 0 221 203 0 215 198 0 215 198 0 215 198 0 217 200 
3 217 200 5 72 66 10 1 2 12 1 2 7 72 66 0 221 204 0 215 198 0 215 198 
0 215 198 0 223 206 4 157 145 10 6 6 10 9 9 10 10 10 10 10 10 10 10 10 
10 10 10 10 10 10 10 10 10 10 10 10 10 10 10 10 10 10 10 10 10 10 10 10 

10 10 10 10 10 10 10 10 10 10 10 10 10 10 10 10 10 10 10 10 10 10 10 10 
10 10 10 10 10 10 10 10 10 11 8 8 4 18 17 7 177 164 0 221 203 0 215 198 
0 215 198 0 217 200 5 209 193 3 51 47 11 0 1 8 24 23 3 187 172 0 221 203 
0 215 198 0 215 198 0 215 198 0 217 200 3 217 200 5 72 66 10 1 2 10 10 10 
10 10 10 10 10 10 10 10 10 10 10 10 10 10 10 10 10 10 10 10 10 10 10 10 
10 10 10 10 10 10 10 10 10 10 10 10 10 10 10 10 10 10 10 10 10 10 10 10 
10 10 10 10 1 2 5 72 67 3 217 200 0 217 200 0 215 198 0 215 198 0 215 198 
0 221 203 3 187 172 8 24 23 11 0 1 3 51 47 5 209 193 0 217 200 0 215 198 
0 215 198 0 221 203 7 177 164 5 18 17 11 8 8 10 10 10 10 10 10 10 10 10 
10 10 10 10 10 10 10 10 10 10 10 10 10 10 10 10 10 10 10 10 10 10 10 10 

10 10 10 10 10 10 10 10 10 10 10 10 10 10 10 10 10 10 10 10 10 10 10 10 
10 10 10 10 10 10 10 10 10 11 7 7 1 25 23 9 189 175 0 220 202 0 215 198 
0 215 198 0 218 201 8 202 187 2 38 35 10 0 0 5 133 122 0 225 207 0 215 198 
0 215 198 0 215 198 0 215 198 1 224 206 5 132 122 8 3 4 11 9 9 10 10 10 
10 10 10 10 10 10 10 10 10 10 10 10 10 10 10 10 10 10 10 10 10 10 10 10 
10 10 10 10 10 10 10 10 10 10 10 10 10 10 10 10 10 10 10 10 10 10 10 10 
10 10 10 11 9 9 8 3 4 5 132 122 1 224 206 0 215 198 0 215 198 0 215 198 
0 215 198 0 225 207 5 132 122 10 0 0 2 38 35 8 202 187 0 218 201 0 215 198 
0 215 198 0 220 202 9 189 175 1 25 23 11 7 7 10 10 10 10 10 10 10 10 10 
10 10 10 10 10 10 10 10 10 10 10 10 10 10 10 10 10 10 10 10 10 10 10 10 

10 10 10 10 10 10 10 10 10 10 10 10 10 10 10 10 10 10 10 10 10 10 10 10 
10 10 10 10 10 10 10 10 10 12 6 7 0 28 26 10 195 180 0 219 202 0 215 198 
0 215 198 0 218 201 10 198 183 0 25 23 7 71 66 2 218 201 0 217 199 0 215 198 
0 215 198 0 215 198 1 219 202 2 184 170 8 22 21 10 6 7 10 10 10 10 10 10 
10 10 10 10 10 10 10 10 10 10 10 10 10 10 10 10 10 10 10 10 10 10 10 10 
10 10 10 10 10 10 10 10 10 10 10 10 10 10 10 10 10 10 10 10 10 10 10 10 
10 10 10 10 10 10 10 6 7 8 22 21 2 184 170 1 219 202 0 215 198 0 215 198 
0 215 198 0 217 199 2 218 201 7 71 66 0 25 23 10 198 183 0 218 201 0 215 198 
0 215 198 0 219 202 10 195 180 0 28 26 12 6 7 10 10 10 10 10 10 10 10 10 
10 10 10 10 10 10 10 10 10 10 10 10 10 10 10 10 10 10 10 10 10 10 10 10 

10 10 10 10 10 10 10 10 10 10 10 10 10 10 10 10 10 10 10 10 10 10 10 10 
10 10 10 10 10 10 10 10 10 12 6 7 0 28 26 10 195 180 0 219 202 0 215 198 
0 215 198 0 218 201 10 198 183 0 25 23 7 71 66 2 218 201 0 217 199 0 215 198 
0 215 198 0 215 198 1 219 202 2 184 170 8 22 21 10 6 7 10 10 10 10 10 10 
10 10 10 10 10 10 10 10 10 10 10 10 10 10 10 10 10 10 10 10 10 10 10 10 
10 10 10 10 10 10 10 10 10 10 10 10 10 10 10 10 10 10 10 10 10 10 10 10 
10 10 10 10 10 10 10 6 7 8 22 21 2 184 170 1 219 202 0 215 198 0 215 198 
0 215 198 0 217 199 2 218 201 7 71 66 0 25 23 10 198 183 0 218 201 0 215 198 
0 215 198 0 219 202 10 195 180 0 28 26 12 6 7 10 10 10 10 10 10 10 10 10 
10 10 10 10 10 10 10 10 10 10 10 10 10 10 10 10 10 10 10 10 10 10 10 10 

10 10 10 10 10 10 10 10 10 10 10 10 10 10 10 10 10 10 10 10 10 10 10 10 
10 10 10 10 10 10 10 10 10 11 7 7 1 25 23 9 189 175 0 220 202 0 215 198 
0 215 198 0 218 201 8 202 187 2 38 35 10 0 0 5 132 122 0 225 207 0 215 198 
0 215 198 0 215 198 0 215 198 1 224 206 5 132 122 8 3 4 11 9 9 10 10 10 
10 10 10 10 10 10 10 10 10 10 10 10 10 10 10 10 10 10 10 10 10 10 10 10 
10 10 10 10 10 10 10 10 10 10 10 10 10 10 10 10 10 10 10 10 10 10 10 10 
10 10 10 11 9 9 8 3 4 5 133 122 0 224 206 0 215 198 0 215 198 0 215 198 
0 215 198 0 225 207 5 132 122 10 0 0 2 38 35 8 202 187 0 218 201 0 215 198 
0 215 198 0 220 202 9 189 175 1 25 23 11 7 7 10 10 10 10 10 10 10 10 10 
10 10 10 10 10 10 10 10 10 10 10 10 10 10 10 10 10 10 10 10 10 10 10 10 

10 10 10 10 10 10 10 10 10 10 10 10 10 10 10 10 10 10 10 10 10 10 10 10 
10 10 10 10 10 10 10 10 10 11 8 8 4 18 17 7 177 164 0 221 203 0 215 198 
0 215 198 0 217 200 5 209 193 3 51 47 11 0 1 8 24 23 3 187 172 0 221 203 
0 215 198 0 215 198 0 215 198 0 217 200 3 217 200 5 72 66 10 1 2 10 10 10 
10 10 10 10 10 10 10 10 10 10 10 10 10 10 10 10 10 10 10 10 10 10 10 10 
10 10 10 10 10 10 10 10 10 10 10 10 10 10 10 10 10 10 10 10 10 10 10 10 
10 10 10 10 1 2 5 72 67 3 217 200 0 217 200 0 215 198 0 215 198 0 215 198 
0 221 203 3 187 172 8 24 23 11 0 1 3 51 47 5 209 193 0 217 200 0 215 198 
0 215 198 0 221 203 7 177 164 5 18 17 11 8 8 10 10 10 10 10 10 10 10 10 
10 10 10 10 10 10 10 10 10 10 10 10 10 10 10 10 10 10 10 10 10 10 10 10 

10 10 10 10 10 10 10 10 10 10 10 10 10 10 10 10 10 10 10 10 10 10 10 10 
10 10 10 10 10 10 10 10 10 10 9 9 10 6 6 4 157 145 0 223 206 0 215 198 
0 215 198 0 215 199 0 221 204 7 72 66 12 1 2 10 1 2 5 72 67 3 217 200 
0 217 200 0 215 198 0 215 198 0 215 198 0 221 203 3 187 172 8 24 23 10 6 6 
10 10 10 10 10 10 10 10 10 10 10 10 10 10 10 10 10 10 10 10 10 10 10 10 
10 10 10 10 10 10 10 10 10 10 10 10 10 10 10 10 10 10 10 10 10 10 10 10 
10 6 6 8 24 23 3 187 172 0 221 203 0 215 198 0 215 198 0 215 198 0 217 200 
3 217 200 5 72 66 10 1 2 12 1 2 7 72 66 0 221 204 0 215 198 0 215 198 
0 215 198 0 223 206 4 157 145 10 6 6 10 9 9 10 10 10 10 10 10 10 10 10 
10 10 10 10 10 10 10 10 10 10 10 10 10 10 10 10 10 10 10 10 10 10 10 10 

10 10 10 10 10 10 10 10 10 10 10 10 10 10 10 10 10 10 10 10 10 10 10 10 
10 10 10 10 10 10 10 10 10 10 10 10 11 0 1 2 129 119 1 224 206 0 215 198 
0 215 198 0 215 198 0 225 207 8 104 96 8 1 2 11 9 9 8 3 4 5 133 122 
0 225 207 0 215 198 0 215 198 0 215 198 0 215 198 0 225 207 5 132 122 8 3 4 
11 9 9 10 10 10 10 10 10 10 10 10 10 10 10 10 10 10 10 10 10 10 10 10 
10 10 10 10 10 10 10 10 10 10 10 10 10 10 10 10 10 10 10 10 10 11 9 9 
8 3 4 5 133 123 0 225 207 0 215 198 0 215 198 0 215 198 0 215 198 0 225 207 
5 132 122 8 3 4 11 9 9 8 1 2 8 104 96 0 225 207 0 215 198 0 215 198 
0 215 198 1 224 206 2 129 119 11 0 1 10 10 10 10 10 10 10 10 10 10 10 10 
10 10 10 10 10 10 10 10 10 10 10 10 10 10 10 10 10 10 10 10 10 10 10 10 

10 10 10 10 10 10 10 10 10 10 10 10 10 10 10 10 10 10 10 10 10 10 10 10 
10 10 10 10 10 10 10 10 10 10 10 10 9 1 2 3 93 86 4 222 205 0 215 198 
0 215 198 0 215 198 1 222 205 5 152 140 6 6 6 10 10 10 10 6 6 8 24 23 
3 187 172 0 221 203 0 215 198 0 215 198 0 215 198 0 217 200 3 217 200 5 72 66 
10 1 2 10 10 10 10 10 10 10 10 10 10 10 10 10 10 10 10 10 10 10 10 10 
10 10 10 10 10 10 10 10 10 10 10 10 10 10 10 10 10 10 10 10 10 10 1 2 
5 72 67 3 217 200 0 217 200 0 215 198 0 215 198 0 215 198 0 221 203 3 187 172 
8 24 23 10 6 6 10 10 10 6 6 6 5 152 141 1 222 205 0 215 198 0 215 198 
0 215 198 4 222 205 3 93 86 9 1 2 10 10 10 10 10 10 10 10 10 10 10 10 
10 10 10 10 10 10 10 10 10 10 10 10 10 10 10 10 10 10 10 10 10 10 10 10 

10 10 10 10 10 10 10 10 10 10 10 10 10 10 10 10 10 10 10 10 10 10 10 10 
10 10 10 10 10 10 10 10 10 10 10 10 9 5 5 9 46 43 1 211 195 0 217 200 
0 215 198 0 215 198 1 218 201 0 197 181 11 26 25 9 7 7 10 10 10 10 1 2 
5 72 67 3 217 200 0 217 200 0 215 198 0 215 198 0 215 198 0 221 203 3 187 172 
8 24 23 10 6 6 10 10 10 10 10 10 10 10 10 10 10 10 10 10 10 10 10 10 
10 10 10 10 10 10 10 10 10 10 10 10 10 10 10 10 10 10 10 6 6 8 24 23 
3 187 172 0 221 203 0 215 198 0 215 198 0 215 198 0 217 200 3 217 200 5 72 66 
10 1 2 10 10 10 9 7 7 11 26 25 0 197 181 1 218 201 0 215 198 0 215 198 
0 217 200 1 211 195 9 46 43 9 5 5 10 10 10 10 10 10 10 10 10 10 10 10 
10 10 10 10 10 10 10 10 10 10 10 10 10 10 10 10 10 10 10 10 10 10 10 10 

10 10 10 10 10 10 10 10 10 10 10 10 10 10 10 10 10 10 10 10 10 10 10 10 
10 10 10 10 10 10 10 10 10 10 10 10 10 8 8 10 15 14 1 182 168 1 220 203 
0 215 198 0 215 198 0 215 198 3 221 204 4 83 76 10 1 2 10 10 10 11 9 9 
8 3 4 5 133 122 0 225 207 0 215 198 0 215 198 0 215 198 0 215 198 0 225 207 
5 132 122 8 3 4 11 9 9 10 10 10 10 10 10 10 10 10 10 10 10 10 10 10 
10 10 10 10 10 10 10 10 10 10 10 10 10 10 10 11 9 9 8 3 4 5 133 123 
0 225 207 0 215 198 0 215 198 0 215 198 0 215 198 0 225 207 5 132 122 8 3 4 
11 9 9 10 10 10 10 1 2 4 83 76 3 221 204 0 215 198 0 215 198 0 215 198 
1 220 203 1 182 168 10 15 14 10 8 8 10 10 10 10 10 10 10 10 10 10 10 10 
10 10 10 10 10 10 10 10 10 10 10 10 10 10 10 10 10 10 10 10 10 10 10 10 

10 10 10 10 10 10 10 10 10 10 10 10 10 10 10 10 10 10 10 10 10 10 10 10 
10 10 10 10 10 10 10 10 10 10 10 10 10 10 10 7 3 3 7 123 114 0 225 207 
0 215 198 0 215 198 0 215 198 0 223 205 5 159 146 7 8 8 11 9 9 10 10 10 
10 6 6 8 24 23 3 187 172 0 221 203 0 215 198 0 215 198 0 215 198 0 217 200 
3 217 200 5 72 66 10 1 2 10 10 10 10 10 10 10 10 10 10 10 10 10 10 10 
10 10 10 10 10 10 10 10 10 10 10 10 10 10 10 10 1 2 5 72 67 3 217 200 
0 217 200 0 215 198 0 215 198 0 215 198 0 221 203 3 187 172 8 24 23 10 6 6 
10 10 10 11 9 9 7 8 8 5 159 147 0 223 205 0 215 198 0 215 198 0 215 198 
0 225 207 7 122 113 7 3 3 10 10 10 10 10 10 10 10 10 10 10 10 10 10 10 
10 10 10 10 10 10 10 10 10 10 10 10 10 10 10 10 10 10 10 10 10 10 10 10 

10 10 10 10 10 10 10 10 10 10 10 10 10 10 10 10 10 10 10 10 10 10 10 10 
10 10 10 10 10 10 10 10 10 10 10 10 10 10 10 11 3 4 4 56 52 4 214 197 
0 217 199 0 215 198 0 215 198 0 216 199 3 216 199 5 63 58 11 2 2 10 10 10 
10 10 10 10 1 2 5 72 67 3 217 200 0 217 200 0 215 198 0 215 198 0 215 198 
0 221 203 3 187 172 8 24 23 10 6 6 10 10 10 10 10 10 10 10 10 10 10 10 
10 10 10 10 10 10 10 10 10 10 10 10 10 6 6 8 24 23 3 187 172 0 221 203 
0 215 198 0 215 198 0 215 198 0 217 200 3 217 200 5 72 66 10 1 2 10 10 10 
10 10 10 11 2 2 5 63 58 3 216 199 0 216 199 0 215 198 0 215 198 0 217 199 
4 214 197 4 56 52 11 3 4 10 10 10 10 10 10 10 10 10 10 10 10 10 10 10 
10 10 10 10 10 10 10 10 10 10 10 10 10 10 10 10 10 10 10 10 10 10 10 10 

10 10 10 10 10 10 10 10 10 10 10 10 10 10 10 10 10 10 10 10 10 10 10 10 
10 10 10 10 10 10 10 10 10 10 10 10 10 10 10 11 8 9 6 12 11 6 168 156 
0 222 205 0 215 198 0 215 198 0 215 198 0 222 205 4 164 151 8 10 10 10 8 8 
10 10 10 11 9 9 8 3 4 5 133 122 0 225 207 0 215 198 0 215 198 0 215 198 
0 215 198 0 225 207 5 132 122 8 3 4 11 9 9 10 10 10 10 10 10 10 10 10 
10 10 10 10 10 10 10 10 10 11 9 9 8 3 4 5 133 123 0 225 207 0 215 198 
0 215 198 0 215 198 0 215 198 0 225 207 5 132 122 8 3 4 11 9 9 10 10 10 
10 8 8 8 10 10 4 164 151 0 222 205 0 215 198 0 215 198 0 215 198 0 222 205 
6 168 155 6 12 11 11 8 9 10 10 10 10 10 10 10 10 10 10 10 10 10 10 10 
10 10 10 10 10 10 10 10 10 10 10 10 10 10 10 10 10 10 10 10 10 10 10 10 

10 10 10 10 10 10 10 10 10 10 10 10 10 10 10 10 10 10 10 10 10 10 10 10 
10 10 10 10 10 10 10 10 10 10 10 10 10 10 10 10 10 10 10 1 2 5 82 76 
2 221 204 0 215 199 0 215 198 0 215 198 0 215 198 1 222 205 6 95 88 9 0 1 
10 10 10 10 10 10 10 6 6 8 24 23 3 187 172 0 221 203 0 215 198 0 215 198 
0 215 198 0 217 200 3 217 200 5 72 66 10 1 2 10 10 10 10 10 10 10 10 10 
10 10 10 10 10 10 10 10 10 10 1 2 5 72 67 3 217 200 0 217 200 0 215 198 
0 215 198 0 215 198 0 221 203 3 187 172 8 24 23 10 6 6 10 10 10 10 10 10 
9 0 1 5 95 88 1 222 205 0 215 198 0 215 198 0 215 198 0 215 199 2 221 204 
5 82 76 10 1 2 10 10 10 10 10 10 10 10 10 10 10 10 10 10 10 10 10 10 
10 10 10 10 10 10 10 10 10 10 10 10 10 10 10 10 10 10 10 10 10 10 10 10 

10 10 10 10 10 10 10 10 10 10 10 10 10 10 10 10 10 10 10 10 10 10 10 10 
10 10 10 10 10 10 10 10 10 10 10 10 10 10 10 10 10 10 10 8 8 9 14 14 
2 178 164 0 221 204 0 215 198 0 215 198 0 215 198 0 219 201 4 204 188 5 50 46 
11 1 2 10 10 10 10 10 10 10 1 2 5 72 67 3 217 200 0 217 200 0 215 198 
0 215 198 0 215 198 0 221 203 3 187 172 8 24 23 10 6 6 10 10 10 10 10 10 
10 10 10 10 10 10 10 6 6 8 24 23 3 187 172 0 221 203 0 215 198 0 215 198 
0 215 198 0 217 200 3 217 200 5 72 66 10 1 2 10 10 10 10 10 10 10 1 2 
5 50 46 4 204 188 0 219 201 0 215 198 0 215 198 0 215 198 0 221 204 2 177 164 
9 14 14 10 8 8 10 10 10 10 10 10 10 10 10 10 10 10 10 10 10 10 10 10 
10 10 10 10 10 10 10 10 10 10 10 10 10 10 10 10 10 10 10 10 10 10 10 10 

10 10 10 10 10 10 10 10 10 10 10 10 10 10 10 10 10 10 10 10 10 10 10 10 
10 10 10 10 10 10 10 10 10 10 10 10 10 10 10 10 10 10 10 10 10 10 2 2 
5 76 71 2 219 202 0 216 199 0 215 198 0 215 198 0 215 198 0 222 205 3 180 166 
7 27 26 10 4 4 10 10 10 11 9 9 8 3 4 5 133 122 0 225 207 0 215 198 
0 215 198 0 215 198 0 215 198 0 225 207 5 132 122 8 3 4 11 9 9 10 10 10 
10 10 10 11 9 9 8 3 4 5 133 123 0 225 207 0 215 198 0 215 198 0 215 198 
0 215 198 0 225 207 5 132 122 8 3 4 11 9 9 10 10 10 10 4 4 7 27 26 
3 180 167 0 222 205 0 215 198 0 215 198 0 215 198 0 216 199 2 219 202 5 76 71 
10 2 2 10 10 10 10 10 10 10 10 10 10 10 10 10 10 10 10 10 10 10 10 10 
10 10 10 10 10 10 10 10 10 10 10 10 10 10 10 10 10 10 10 10 10 10 10 10 

10 10 10 10 10 10 10 10 10 10 10 10 10 10 10 10 10 10 10 10 10 10 10 10 
10 10 10 10 10 10 10 10 10 10 10 10 10 10 10 10 10 10 10 10 10 11 9 9 
8 7 7 5 151 139 0 225 207 0 215 198 0 215 198 0 215 198 0 215 198 0 224 206 
4 166 153 7 21 20 11 4 4 10 10 10 10 6 6 8 24 23 3 187 172 0 221 203 
0 215 198 0 215 198 0 215 198 0 217 200 3 217 200 5 72 66 10 1 2 10 10 10 
10 10 10 10 1 2 5 72 67 3 217 200 0 217 200 0 215 198 0 215 198 0 215 198 
0 221 203 3 187 172 8 24 23 10 6 6 10 10 10 11 4 4 7 22 20 4 166 154 
0 224 206 0 215 198 0 215 198 0 215 198 0 215 198 0 225 207 5 150 139 8 7 7 
11 9 9 10 10 10 10 10 10 10 10 10 10 10 10 10 10 10 10 10 10 10 10 10 
10 10 10 10 10 10 10 10 10 10 10 10 10 10 10 10 10 10 10 10 10 10 10 10 

10 10 10 10 10 10 10 10 10 10 10 10 10 10 10 10 10 10 10 10 10 10 10 10 
10 10 10 10 10 10 10 10 10 10 10 10 10 10 10 10 10 10 10 10 10 10 10 10 
10 5 5 7 39 36 2 199 183 0 220 202 0 215 198 0 215 198 0 215 198 0 215 198 
0 224 206 3 167 154 8 27 26 10 2 2 10 10 10 10 1 2 5 72 67 3 217 200 
0 217 200 0 215 198 0 215 198 0 215 198 0 221 203 3 187 172 8 24 23 10 6 7 
10 6 6 8 24 23 3 187 172 0 221 203 0 215 198 0 215 198 0 215 198 0 217 200 
3 217 200 5 72 66 10 1 2 10 10 10 10 2 2 8 27 26 3 167 154 0 224 206 
0 215 198 0 215 198 0 215 198 0 215 198 0 220 202 2 199 183 7 38 36 10 5 5 
10 10 10 10 10 10 10 10 10 10 10 10 10 10 10 10 10 10 10 10 10 10 10 10 
10 10 10 10 10 10 10 10 10 10 10 10 10 10 10 10 10 10 10 10 10 10 10 10 

10 10 10 10 10 10 10 10 10 10 10 10 10 10 10 10 10 10 10 10 10 10 10 10 
10 10 10 10 10 10 10 10 10 10 10 10 10 10 10 10 10 10 10 10 10 10 10 10 
10 10 10 10 1 1 5 80 74 2 219 202 0 217 200 0 215 198 0 215 198 0 215 198 
0 215 198 0 224 206 3 180 166 6 49 46 10 0 0 11 7 8 8 4 4 5 133 122 
0 225 207 0 215 198 0 215 198 0 215 198 0 215 198 0 225 207 5 133 122 9 3 3 
9 3 3 5 133 123 0 225 207 0 215 198 0 215 198 0 215 198 0 215 198 0 225 207 
5 132 122 8 3 4 11 7 8 10 0 0 6 50 46 3 180 166 0 224 206 0 215 198 
0 215 198 0 215 198 0 215 198 0 217 200 2 219 202 5 80 74 10 1 1 10 10 10 
10 10 10 10 10 10 10 10 10 10 10 10 10 10 10 10 10 10 10 10 10 10 10 10 
10 10 10 10 10 10 10 10 10 10 10 10 10 10 10 10 10 10 10 10 10 10 10 10 

10 10 10 10 10 10 10 10 10 10 10 10 10 10 10 10 10 10 10 10 10 10 10 10 
10 10 10 10 10 10 10 10 10 10 10 10 10 10 10 10 10 10 10 10 10 10 10 10 
10 10 10 11 9 9 8 4 4 6 117 108 0 224 206 0 216 199 0 215 198 0 215 198 
0 215 198 0 215 198 0 222 205 1 205 189 6 95 88 9 10 10 10 0 0 8 23 22 
3 187 172 0 221 203 0 215 198 0 215 198 0 215 198 0 217 200 3 217 200 5 65 60 
5 65 61 3 217 200 0 217 200 0 215 198 0 215 198 0 215 198 0 221 203 3 187 172 
8 23 22 10 0 0 9 10 10 6 95 88 1 205 189 0 222 205 0 215 198 0 215 198 
0 215 198 0 215 198 0 216 199 0 224 206 6 116 108 8 4 4 11 9 9 10 10 10 
10 10 10 10 10 10 10 10 10 10 10 10 10 10 10 10 10 10 10 10 10 10 10 10 
10 10 10 10 10 10 10 10 10 10 10 10 10 10 10 10 10 10 10 10 10 10 10 10 

10 10 10 10 10 10 10 10 10 10 10 10 10 10 10 10 10 10 10 10 10 10 10 10 
10 10 10 10 10 10 10 10 10 10 10 10 10 10 10 10 10 10 10 10 10 10 10 10 
10 10 10 10 10 10 10 8 8 9 7 7 4 135 124 1 225 208 0 216 199 0 215 198 
0 215 198 0 215 198 0 215 198 0 218 201 0 223 205 3 164 152 8 62 58 9 0 0 
5 62 58 3 214 197 0 217 200 0 215 198 0 215 198 0 215 198 0 219 202 1 189 174 
1 189 174 0 219 202 0 215 198 0 215 198 0 215 198 0 217 200 3 214 197 5 62 58 
9 0 0 8 62 58 3 164 152 0 223 205 0 218 201 0 215 198 0 215 198 0 215 198 
0 215 198 0 216 199 1 225 208 4 135 124 9 7 7 10 8 8 10 10 10 10 10 10 
10 10 10 10 10 10 10 10 10 10 10 10 10 10 10 10 10 10 10 10 10 10 10 10 
10 10 10 10 10 10 10 10 10 10 10 10 10 10 10 10 10 10 10 10 10 10 10 10 

10 10 10 10 10 10 10 10 10 10 10 10 10 10 10 10 10 10 10 10 10 10 10 10 
10 10 10 10 10 10 10 10 10 10 10 10 10 10 10 10 10 10 10 10 10 10 10 10 
10 10 10 10 10 10 10 10 10 11 7 7 8 12 11 5 134 124 0 224 206 0 217 200 
0 215 198 0 215 198 0 215 198 0 215 198 0 215 198 0 223 205 1 217 200 3 159 147 
5 75 70 3 146 135 1 220 203 0 215 198 0 215 198 0 215 198 0 215 198 0 219 201 
0 219 201 0 215 198 0 215 198 0 215 198 0 215 198 1 220 203 3 146 135 5 75 70 
3 159 147 1 217 200 0 222 205 0 215 198 0 215 198 0 215 198 0 215 198 0 215 198 
0 217 200 0 224 206 5 134 124 8 11 11 11 7 7 10 10 10 10 10 10 10 10 10 
10 10 10 10 10 10 10 10 10 10 10 10 10 10 10 10 10 10 10 10 10 10 10 10 
10 10 10 10 10 10 10 10 10 10 10 10 10 10 10 10 10 10 10 10 10 10 10 10 

10 10 10 10 10 10 10 10 10 10 10 10 10 10 10 10 10 10 10 10 10 10 10 10 
10 10 10 10 10 10 10 10 10 10 10 10 10 10 10 10 10 10 10 10 10 10 10 10 
10 10 10 10 10 10 10 10 10 10 10 10 10 7 7 9 7 7 4 117 108 1 219 202 
0 220 202 0 215 198 0 215 198 0 215 198 0 215 198 0 215 198 0 216 199 0 223 205 
0 220 203 0 201 186 0 214 197 0 215 198 0 215 198 0 215 198 0 215 198 0 215 198 
0 215 198 0 215 198 0 215 198 0 215 198 0 215 198 0 214 197 0 201 185 0 220 203 
0 223 205 0 216 199 0 215 198 0 215 198 0 215 198 0 215 198 0 215 198 0 220 202 
1 219 202 4 117 108 9 6 7 10 7 7 10 10 10 10 10 10 10 10 10 10 10 10 
10 10 10 10 10 10 10 10 10 10 10 10 10 10 10 10 10 10 10 10 10 10 10 10 
10 10 10 10 10 10 10 10 10 10 10 10 10 10 10 10 10 10 10 10 10 10 10 10 

10 10 10 10 10 10 10 10 10 10 10 10 10 10 10 10 10 10 10 10 10 10 10 10 
10 10 10 10 10 10 10 10 10 10 10 10 10 10 10 10 10 10 10 10 10 10 10 10 
10 10 10 10 10 10 10 10 10 10 10 10 10 10 10 10 8 8 9 3 4 6 79 73 
2 199 184 0 225 207 0 216 199 0 215 198 0 215 198 0 215 198 0 215 198 0 215 198 
0 215 199 0 217 200 0 215 198 0 215 198 0 215 198 0 215 198 0 215 198 0 215 198 
0 215 198 0 215 198 0 215 198 0 215 198 0 215 198 0 215 198 0 217 200 0 215 199 
0 215 198 0 215 198 0 215 198 0 215 198 0 215 198 0 216 199 0 225 207 2 199 184 
6 79 73 9 3 4 10 8 8 10 10 10 10 10 10 10 10 10 10 10 10 10 10 10 
10 10 10 10 10 10 10 10 10 10 10 10 10 10 10 10 10 10 10 10 10 10 10 10 
10 10 10 10 10 10 10 10 10 10 10 10 10 10 10 10 10 10 10 10 10 10 10 10 

10 10 10 10 10 10 10 10 10 10 10 10 10 10 10 10 10 10 10 10 10 10 10 10 
10 10 10 10 10 10 10 10 10 10 10 10 10 10 10 10 10 10 10 10 10 10 10 10 
10 10 10 10 10 10 10 10 10 10 10 10 10 10 10 10 10 10 10 9 9 10 0 1 
7 39 36 4 151 139 0 220 203 0 222 204 0 215 198 0 215 198 0 215 198 0 215 198 
0 215 198 0 215 198 0 215 198 0 215 198 0 215 198 0 215 198 0 215 198 0 215 198 
0 215 198 0 215 198 0 215 198 0 215 198 0 215 198 0 215 198 0 215 198 0 215 198 
0 215 198 0 215 198 0 215 198 0 215 198 0 222 204 0 220 203 4 151 139 7 39 36 
10 0 1 10 9 9 10 10 10 10 10 10 10 10 10 10 10 10 10 10 10 10 10 10 
10 10 10 10 10 10 10 10 10 10 10 10 10 10 10 10 10 10 10 10 10 10 10 10 
10 10 10 10 10 10 10 10 10 10 10 10 10 10 10 10 10 10 10 10 10 10 10 10 

10 10 10 10 10 10 10 10 10 10 10 10 10 10 10 10 10 10 10 10 10 10 10 10 
10 10 10 10 10 10 10 10 10 10 10 10 10 10 10 10 10 10 10 10 10 10 10 10 
10 10 10 10 10 10 10 10 10 10 10 10 10 10 10 10 10 10 10 10 10 10 10 10 
10 4 5 10 6 6 6 76 71 3 177 163 0 222 205 0 222 205 0 216 199 0 215 198 
0 215 198 0 215 198 0 215 198 0 215 198 0 215 198 0 215 198 0 215 198 0 215 198 
0 215 198 0 215 198 0 215 198 0 215 198 0 215 198 0 215 198 0 215 198 0 215 198 
0 215 198 0 216 199 0 222 205 0 222 205 3 177 163 6 76 71 10 6 6 10 4 5 
10 10 10 10 10 10 10 10 10 10 10 10 10 10 10 10 10 10 10 10 10 10 10 10 
10 10 10 10 10 10 10 10 10 10 10 10 10 10 10 10 10 10 10 10 10 10 10 10 
10 10 10 10 10 10 10 10 10 10 10 10 10 10 10 10 10 10 10 10 10 10 10 10 

10 10 10 10 10 10 10 10 10 10 10 10 10 10 10 10 10 10 10 10 10 10 10 10 
10 10 10 10 10 10 10 10 10 10 10 10 10 10 10 10 10 10 10 10 10 10 10 10 
10 10 10 10 10 10 10 10 10 10 10 10 10 10 10 10 10 10 10 10 10 10 10 10 
10 10 10 10 9 9 10 1 2 10 14 14 5 82 76 3 170 156 0 215 198 0 225 207 
0 220 203 0 217 200 0 215 198 0 215 198 0 215 198 0 215 198 0 215 198 0 215 198 
0 215 198 0 215 198 0 215 198 0 215 198 0 215 198 0 215 198 0 217 200 0 220 203 
0 225 207 0 215 198 3 169 156 5 82 76 10 14 14 10 1 2 10 9 9 10 10 10 
10 10 10 10 10 10 10 10 10 10 10 10 10 10 10 10 10 10 10 10 10 10 10 10 
10 10 10 10 10 10 10 10 10 10 10 10 10 10 10 10 10 10 10 10 10 10 10 10 
10 10 10 10 10 10 10 10 10 10 10 10 10 10 10 10 10 10 10 10 10 10 10 10 

10 10 10 10 10 10 10 10 10 10 10 10 10 10 10 10 10 10 10 10 10 10 10 10 
10 10 10 10 10 10 10 10 10 10 10 10 10 10 10 10 10 10 10 10 10 10 10 10 
10 10 10 10 10 10 10 10 10 10 10 10 10 10 10 10 10 10 10 10 10 10 10 10 
10 10 10 10 10 10 10 10 10 10 8 8 10 1 2 10 10 10 7 54 51 5 123 114 
2 181 167 1 211 195 0 224 206 0 224 207 0 223 205 0 221 203 0 217 200 0 215 198 
0 215 198 0 217 200 0 221 203 0 223 205 0 224 207 0 224 206 1 211 195 2 181 167 
5 123 114 7 54 51 10 10 10 10 1 2 10 8 8 10 10 10 10 10 10 10 10 10 
10 10 10 10 10 10 10 10 10 10 10 10 10 10 10 10 10 10 10 10 10 10 10 10 
10 10 10 10 10 10 10 10 10 10 10 10 10 10 10 10 10 10 10 10 10 10 10 10 
10 10 10 10 10 10 10 10 10 10 10 10 10 10 10 10 10 10 10 10 10 10 10 10 

10 10 10 10 10 10 10 10 10 10 10 10 10 10 10 10 10 10 10 10 10 10 10 10 
10 10 10 10 10 10 10 10 10 10 10 10 10 10 10 10 10 10 10 10 10 10 10 10 
10 10 10 10 10 10 10 10 10 10 10 10 10 10 10 10 10 10 10 10 10 10 10 10 
10 10 10 10 10 10 10 10 10 10 10 10 10 10 10 10 9 9 10 3 4 10 1 2 
9 15 14 8 46 43 6 92 85 5 128 118 3 158 145 2 179 165 1 208 192 0 217 200 
0 217 200 1 208 192 2 179 165 3 158 145 5 128 118 6 91 85 8 46 43 9 15 14 
10 1 2 10 3 4 10 9 9 10 10 10 10 10 10 10 10 10 10 10 10 10 10 10 
10 10 10 10 10 10 10 10 10 10 10 10 10 10 10 10 10 10 10 10 10 10 10 10 
10 10 10 10 10 10 10 10 10 10 10 10 10 10 10 10 10 10 10 10 10 10 10 10 
10 10 10 10 10 10 10 10 10 10 10 10 10 10 10 10 10 10 10 10 10 10 10 10 

10 10 10 10 10 10 10 10 10 10 10 10 10 10 10 10 10 10 10 10 10 10 10 10 
10 10 10 10 10 10 10 10 10 10 10 10 10 10 10 10 10 10 10 10 10 10 10 10 
10 10 10 10 10 10 10 10 10 10 10 10 10 10 10 10 10 10 10 10 10 10 10 10 
10 10 10 10 10 10 10 10 10 10 10 10 10 10 10 10 10 10 10 10 10 10 10 10 
10 8 8 10 4 5 10 1 2 10 1 1 10 5 6 10 9 9 5 77 71 2 218 201 
2 218 201 5 77 71 10 9 9 10 5 6 10 1 1 10 1 2 10 4 5 10 8 8 
10 10 10 10 10 10 10 10 10 10 10 10 10 10 10 10 10 10 10 10 10 10 10 10 
10 10 10 10 10 10 10 10 10 10 10 10 10 10 10 10 10 10 10 10 10 10 10 10 
10 10 10 10 10 10 10 10 10 10 10 10 10 10 10 10 10 10 10 10 10 10 10 10 
10 10 10 10 10 10 10 10 10 10 10 10 10 10 10 10 10 10 10 10 10 10 10 10 

10 10 10 10 10 10 10 10 10 10 10 10 10 10 10 10 10 10 10 10 10 10 10 10 
10 10 10 10 10 10 10 10 10 10 10 10 10 10 10 10 10 10 10 10 10 10 10 10 
10 10 10 10 10 10 10 10 10 10 10 10 10 10 10 10 10 10 10 10 10 10 10 10 
10 10 10 10 10 10 10 10 10 10 10 10 10 10 10 10 10 10 10 10 10 10 10 10 
10 10 10 10 10 10 10 10 10 10 10 10 10 9 9 11 7 8 8 3 3 6 139 128 
5 138 128 8 3 3 11 7 8 10 9 9 10 10 10 10 10 10 10 10 10 10 10 10 
10 10 10 10 10 10 10 10 10 10 10 10 10 10 10 10 10 10 10 10 10 10 10 10 
10 10 10 10 10 10 10 10 10 10 10 10 10 10 10 10 10 10 10 10 10 10 10 10 
10 10 10 10 10 10 10 10 10 10 10 10 10 10 10 10 10 10 10 10 10 10 10 10 
10 10 10 10 10 10 10 10 10 10 10 10 10 10 10 10 10 10 10 10 10 10 10 10 

10 10 10 10 10 10 10 10 10 10 10 10 10 10 10 10 10 10 10 10 10 10 10 10 
10 10 10 10 10 10 10 10 10 10 10 10 10 10 10 10 10 10 10 10 10 10 10 10 
10 10 10 10 10 10 10 10 10 10 10 10 10 10 10 10 10 10 10 10 10 10 10 10 
10 10 10 10 10 10 10 10 10 10 10 10 10 10 10 10 10 10 10 10 10 10 10 10 
10 10 10 10 10 10 10 10 10 10 10 10 10 10 10 10 10 10 10 7 8 10 22 21 
10 22 21 10 7 8 10 10 10 10 10 10 10 10 10 10 10 10 10 10 10 10 10 10 
10 10 10 10 10 10 10 10 10 10 10 10 10 10 10 10 10 10 10 10 10 10 10 10 
10 10 10 10 10 10 10 10 10 10 10 10 10 10 10 10 10 10 10 10 10 10 10 10 
10 10 10 10 10 10 10 10 10 10 10 10 10 10 10 10 10 10 10 10 10 10 10 10 
10 10 10 10 10 10 10 10 10 10 10 10 10 10 10 10 10 10 10 10 10 10 10 10 

10 10 10 10 10 10 10 10 10 10 10 10 10 10 10 10 10 10 10 10 10 10 10 10 
10 10 10 10 10 10 10 10 10 10 10 10 10 10 10 10 10 10 10 10 10 10 10 10 
10 10 10 10 10 10 10 10 10 10 10 10 10 10 10 10 10 10 10 10 10 10 10 10 
10 10 10 10 10 10 10 10 10 10 10 10 10 10 10 10 10 10 10 10 10 10 10 10 
10 10 10 10 10 10 10 10 10 10 10 10 10 10 10 10 10 10 10 10 10 10 8 8 
10 8 8 10 10 10 10 10 10 10 10 10 10 10 10 10 10 10 10 10 10 10 10 10 
10 10 10 10 10 10 10 10 10 10 10 10 10 10 10 10 10 10 10 10 10 10 10 10 
10 10 10 10 10 10 10 10 10 10 10 10 10 10 10 10 10 10 10 10 10 10 10 10 
10 10 10 10 10 10 10 10 10 10 10 10 10 10 10 10 10 10 10 10 10 10 10 10 
10 10 10 10 10 10 10 10 10 10 10 10 10 10 10 10 10 10 10 10 10 10 10 10 

10 10 10 10 10 10 10 10 10 10 10 10 10 10 10 10 10 10 10 10 10 10 10 10 
10 10 10 10 10 10 10 10 10 10 10 10 10 10 10 10 10 10 10 10 10 10 10 10 
10 10 10 10 10 10 10 10 10 10 10 10 10 10 10 10 10 10 10 10 10 10 10 10 
10 10 10 10 10 10 10 10 10 10 10 10 10 10 10 10 10 10 10 10 10 10 10 10 
10 10 10 10 10 10 10 10 10 10 10 10 10 10 10 10 10 10 10 10 10 10 10 10 
10 10 10 10 10 10 10 10 10 10 10 10 10 10 10 10 10 10 10 10 10 10 10 10 
10 10 10 10 10 10 10 10 10 10 10 10 10 10 10 10 10 10 10 10 10 10 10 10 
10 10 10 10 10 10 10 10 10 10 10 10 10 10 10 10 10 10 10 10 10 10 10 10 
10 10 10 10 10 10 10 10 10 10 10 10 10 10 10 10 10 10 10 10 10 10 10 10 
10 10 10 10 10 10 10 10 10 10 10 10 10 10 10 10 10 10 10 10 10 10 10 10 

7 7 7 10 10 10 10 10 10 10 10 10 10 10 10 10 10 10 10 10 10 10 10 10 
10 10 10 10 10 10 10 10 10 10 10 10 10 10 10 10 10 10 10 10 10 10 10 10 
10 10 10 10 10 10 10 10 10 10 10 10 10 10 10 10 10 10 10 10 10 10 10 10 
10 10 10 10 10 10 10 10 10 10 10 10 10 10 10 10 10 10 10 10 10 10 10 10 
10 10 10 10 10 10 10 10 10 10 10 10 10 10 10 10 10 10 10 10 10 10 10 10 
10 10 10 10 10 10 10 10 10 10 10 10 10 10 10 10 10 10 10 10 10 10 10 10 
10 10 10 10 10 10 10 10 10 10 10 10 10 10 10 10 10 10 10 10 10 10 10 10 
10 10 10 10 10 10 10 10 10 10 10 10 10 10 10 10 10 10 10 10 10 10 10 10 
10 10 10 10 10 10 10 10 10 10 10 10 10 10 10 10 10 10 10 10 10 10 10 10 
10 10 10 10 10 10 10 10 10 10 10 10 10 10 10 10 10 10 10 10 10 7 7 7 

4 4 4 11 11 11 10 10 10 10 10 10 10 10 10 10 10 10 10 10 10 10 10 10 
10 10 10 10 10 10 10 10 10 10 10 10 10 10 10 10 10 10 10 10 10 10 10 10 
10 10 10 10 10 10 10 10 10 10 10 10 10 10 10 10 10 10 10 10 10 10 10 10 
10 10 10 10 10 10 10 10 10 10 10 10 10 10 10 10 10 10 10 10 10 10 10 10 
10 10 10 10 10 10 10 10 10 10 10 10 10 10 10 10 10 10 10 10 10 10 10 10 
10 10 10 10 10 10 10 10 10 10 10 10 10 10 10 10 10 10 10 10 10 10 10 10 
10 10 10 10 10 10 10 10 10 10 10 10 10 10 10 10 10 10 10 10 10 10 10 10 
10 10 10 10 10 10 10 10 10 10 10 10 10 10 10 10 10 10 10 10 10 10 10 10 
10 10 10 10 10 10 10 10 10 10 10 10 10 10 10 10 10 10 10 10 10 10 10 10 
10 10 10 10 10 10 10 10 10 10 10 10 10 10 10 10 10 10 11 11 11 4 4 4 

1 1 1 9 9 9 10 10 10 10 10 10 10 10 10 10 10 10 10 10 10 10 10 10 
10 10 10 10 10 10 10 10 10 10 10 10 10 10 10 10 10 10 10 10 10 10 10 10 
10 10 10 10 10 10 10 10 10 10 10 10 10 10 10 10 10 10 10 10 10 10 10 10 
10 10 10 10 10 10 10 10 10 10 10 10 10 10 10 10 10 10 10 10 10 10 10 10 
10 10 10 10 10 10 10 10 10 10 10 10 10 10 10 10 10 10 10 10 10 10 10 10 
10 10 10 10 10 10 10 10 10 10 10 10 10 10 10 10 10 10 10 10 10 10 10 10 
10 10 10 10 10 10 10 10 10 10 10 10 10 10 10 10 10 10 10 10 10 10 10 10 
10 10 10 10 10 10 10 10 10 10 10 10 10 10 10 10 10 10 10 10 10 10 10 10 
10 10 10 10 10 10 10 10 10 10 10 10 10 10 10 10 10 10 10 10 10 10 10 10 
10 10 10 10 10 10 10 10 10 10 10 10 10 10 10 10 10 10 9 9 9 1 1 1 

0 0 0 2 2 2 10 10 10 10 10 10 10 10 10 10 10 10 10 10 10 10 10 10 
10 10 10 10 10 10 10 10 10 10 10 10 10 10 10 10 10 10 10 10 10 10 10 10 
10 10 10 10 10 10 10 10 10 10 10 10 10 10 10 10 10 10 10 10 10 10 10 10 
10 10 10 10 10 10 10 10 10 10 10 10 10 10 10 10 10 10 10 10 10 10 10 10 
10 10 10 10 10 10 10 10 10 10 10 10 10 10 10 10 10 10 10 10 10 10 10 10 
10 10 10 10 10 10 10 10 10 10 10 10 10 10 10 10 10 10 10 10 10 10 10 10 
10 10 10 10 10 10 10 10 10 10 10 10 10 10 10 10 10 10 10 10 10 10 10 10 
10 10 10 10 10 10 10 10 10 10 10 10 10 10 10 10 10 10 10 10 10 10 10 10 
10 10 10 10 10 10 10 10 10 10 10 10 10 10 10 10 10 10 10 10 10 10 10 10 
10 10 10 10 10 10 10 10 10 10 10 10 10 10 10 10 10 10 2 2 2 0 0 0 

0 0 0 0 0 0 4 4 4 10 10 10 10 10 10 10 10 10 10 10 10 10 10 10 
10 10 10 10 10 10 10 10 10 10 10 10 10 10 10 10 10 10 10 10 10 10 10 10 
10 10 10 10 10 10 10 10 10 10 10 10 10 10 10 10 10 10 10 10 10 10 10 10 
10 10 10 10 10 10 10 10 10 10 10 10 10 10 10 10 10 10 10 10 10 10 10 10 
10 10 10 10 10 10 10 10 10 10 10 10 10 10 10 10 10 10 10 10 10 10 10 10 
10 10 10 10 10 10 10 10 10 10 10 10 10 10 10 10 10 10 10 10 10 10 10 10 
10 10 10 10 10 10 10 10 10 10 10 10 10 10 10 10 10 10 10 10 10 10 10 10 
10 10 10 10 10 10 10 10 10 10 10 10 10 10 10 10 10 10 10 10 10 10 10 10 
10 10 10 10 10 10 10 10 10 10 10 10 10 10 10 10 10 10 10 10 10 10 10 10 
10 10 10 10 10 10 10 10 10 10 10 10 10 10 10 4 4 4 0 0 0 0 0 0 

0 0 0 0 0 0 0 0 0 4 4 4 10 10 10 10 10 10 10 10 10 10 10 10 
10 10 10 10 10 10 10 10 10 10 10 10 10 10 10 10 10 10 10 10 10 10 10 10 
10 10 10 10 10 10 10 10 10 10 10 10 10 10 10 10 10 10 10 10 10 10 10 10 
10 10 10 10 10 10 10 10 10 10 10 10 10 10 10 10 10 10 10 10 10 10 10 10 
10 10 10 10 10 10 10 10 10 10 10 10 10 10 10 10 10 10 10 10 10 10 10 10 
10 10 10 10 10 10 10 10 10 10 10 10 10 10 10 10 10 10 10 10 10 10 10 10 
10 10 10 10 10 10 10 10 10 10 10 10 10 10 10 10 10 10 10 10 10 10 10 10 
10 10 10 10 10 10 10 10 10 10 10 10 10 10 10 10 10 10 10 10 10 10 10 10 
10 10 10 10 10 10 10 10 10 10 10 10 10 10 10 10 10 10 10 10 10 10 10 10 
10 10 10 10 10 10 10 10 10 10 10 10 4 4 4 0 0 0 0 0 0 0 0 0 

0 0 0 0 0 0 0 0 0 0 0 0 2 2 2 9 9 9 11 11 11 10 10 10 
10 10 10 10 10 10 10 10 10 10 10 10 10 10 10 10 10 10 10 10 10 10 10 10 
10 10 10 10 10 10 10 10 10 10 10 10 10 10 10 10 10 10 10 10 10 10 10 10 
10 10 10 10 10 10 10 10 10 10 10 10 10 10 10 10 10 10 10 10 10 10 10 10 
10 10 10 10 10 10 10 10 10 10 10 10 10 10 10 10 10 10 10 10 10 10 10 10 
10 10 10 10 10 10 10 10 10 10 10 10 10 10 10 10 10 10 10 10 10 10 10 10 
10 10 10 10 10 10 10 10 10 10 10 10 10 10 10 10 10 10 10 10 10 10 10 10 
10 10 10 10 10 10 10 10 10 10 10 10 10 10 10 10 10 10 10 10 10 10 10 10 
10 10 10 10 10 10 10 10 10 10 10 10 10 10 10 10 10 10 10 10 10 10 10 10 
10 10 10 11 11 11 9 9 9 2 2 2 0 0 0 0 0 0 0 0 0 0 0 0 

0 0 0 0 0 0 0 0 0 0 0 0 0 0 0 1 1 1 4 4 4 7 7 7 
10 10 10 10 10 10 10 10 10 10 10 10 10 10 10 10 10 10 10 10 10 10 10 10 
10 10 10 10 10 10 10 10 10 10 10 10 10 10 10 10 10 10 10 10 10 10 10 10 
10 10 10 10 10 10 10 10 10 10 10 10 10 10 10 10 10 10 10 10 10 10 10 10 
10 10 10 10 10 10 10 10 10 10 10 10 10 10 10 10 10 10 10 10 10 10 10 10 
10 10 10 10 10 10 10 10 10 10 10 10 10 10 10 10 10 10 10 10 10 10 10 10 
10 10 10 10 10 10 10 10 10 10 10 10 10 10 10 10 10 10 10 10 10 10 10 10 
10 10 10 10 10 10 10 10 10 10 10 10 10 10 10 10 10 10 10 10 10 10 10 10 
10 10 10 10 10 10 10 10 10 10 10 10 10 10 10 10 10 10 10 10 10 10 10 10 
7 7 7 4 4 4 1 1 1 0 0 0 0 0 0 0 0 0 0 0 0 0 0 0 

